X: 11068
T: NATHAN'S HORNPIPE
C: Bob McQuillen 1 July 2000
B: Bob's Note Book 11 #68
R: hornpipe, reel
Z: 2020 John Chambers <jc:trillian.mit.edu>
M: C
L: 1/8
K: D
FA \
| dfec dABG | FDFA d2FA | GABG FAde | fafd e2FA |
| dfec dABG | FDFA BdAG | FAdf gecd | e2d2 d2  :|
|: cd \
| edcd fdAd | efde f2fa | geag fAdf | edcB A2dc |
| BGBd gdBd | AFAd f2dA | Bdge cA ag | f2d2 d2 :|
%%begintext align
%% Nathan
%% Spaulding's dad, Howard, was an avid
%% dancer a few years back, and his sons in surely
%% following in his father's footsteps. Nathan is a real
%% fan, and it's always nice to see him out on the dance
%% floor. Hope you like your tune, Nathan!
%%endtext

%%sep 1 1 500

%%sep 1 1 500

